icons/dreamweaver-filled.svg

<svg width="256" height="256" viewBox="0 0 256 256" fill="none" xmlns="http://www.w3.org/2000/svg">
<path d="M196 0H60C26.8629 0 0 26.8629 0 60V196C0 229.137 26.8629 256 60 256H196C229.137 256 256 229.137 256 196V60C256 26.8629 229.137 0 196 0Z" fill="#470137"/>
<path d="M29.0056 179.2V76.8C28.9762 76.4969 29.0632 76.1939 29.2489 75.9525C29.4345 75.7111 29.7051 75.5493 30.0056 75.5H30.1056C31.6056 75.4 33.9056 75.3 36.8056 75.3C39.7056 75.3 43.2056 75.2 47.2056 75.1C51.2056 75 55.4056 75 59.9056 75C72.1056 75 82.3056 77.2 90.3056 81.6C98.0048 85.6989 104.307 92.0008 108.406 99.7C112.406 107.4 114.406 116.2 114.406 126.2C114.534 133.159 113.485 140.09 111.306 146.7C109.4 152.314 106.485 157.533 102.706 162.1C99.1895 166.287 95.0392 169.898 90.4056 172.8C85.8397 175.607 80.887 177.729 75.7056 179.1C70.6777 180.416 65.5029 181.088 60.3056 181.1H49.0056C45.0056 181.1 41.2056 181.1 37.8056 181C34.4056 180.9 31.7056 180.9 30.0056 180.8C29.3056 180.8 29.0056 180.2 29.0056 179.2ZM50.1056 94.8V161.5C51.2056 161.5 52.2056 161.5 53.2056 161.6C54.2056 161.7 55.1056 161.7 56.0056 161.8C56.9056 161.9 58.1056 161.9 59.3056 161.9C63.9423 161.983 68.554 161.203 72.9056 159.6C76.8923 158.192 80.4901 155.862 83.4056 152.8C86.3993 149.616 88.6829 145.832 90.1056 141.7C91.7039 136.861 92.5143 131.796 92.5056 126.7C92.597 121.9 91.8177 117.122 90.2056 112.6C88.8261 108.748 86.5594 105.274 83.5887 102.459C80.6181 99.6452 77.027 97.5694 73.1056 96.4C68.8342 95.0707 64.3785 94.4294 59.9056 94.5C57.9056 94.5 56.2056 94.5 54.8056 94.6C53.4056 94.7 51.8056 94.7 50.1056 94.8Z" fill="#FF61F6"/>
<path d="M204.006 180.8H185.306C185.088 180.835 184.866 180.817 184.657 180.747C184.448 180.677 184.259 180.558 184.106 180.4C183.827 180.044 183.623 179.636 183.506 179.2C181.606 171.2 180.006 164 178.706 157.9C177.406 151.8 176.306 146.5 175.506 142.2C174.706 137.9 174.006 134.3 173.406 131.3C172.806 128.3 172.406 125.8 172.106 123.7H172.006C171.006 128.1 170.106 132.4 169.206 136.5C168.306 140.6 167.406 144.8 166.406 149C165.406 153.2 164.306 157.8 163.006 162.8C161.706 167.8 160.406 173.3 158.906 179.2C158.706 180.3 158.206 180.8 157.306 180.8H138.606C138.119 180.857 137.627 180.751 137.206 180.5C136.916 180.173 136.679 179.802 136.506 179.4L117.006 102.1C116.706 101.2 117.106 100.8 118.206 100.8H137.106C138.006 100.8 138.506 101.1 138.606 101.8C140.606 110.6 142.306 118.2 143.606 124.6C144.906 131 146.006 136.4 146.706 140.9C147.406 145.4 148.106 149.1 148.606 151.9C149.106 154.7 149.506 157.1 149.806 158.9H150.106C150.306 157.3 150.506 155.8 150.806 154.2C151.206 152.3 151.706 149.8 152.306 146.7C152.906 143.6 153.606 140 154.506 135.8C155.406 131.6 156.406 126.8 157.606 121.2C158.806 115.6 160.306 109.4 162.206 102.3C162.246 101.843 162.382 101.4 162.606 101C162.706 100.8 163.106 100.7 163.706 100.7H183.306C183.906 100.7 184.206 101.1 184.306 101.8C186.006 109.1 187.406 115.5 188.606 121C189.806 126.5 190.706 131.4 191.606 135.7C192.506 140 193.106 143.6 193.506 146.6C193.906 149.6 194.406 152.2 194.806 154.3C195.137 155.985 195.371 157.688 195.506 159.4H195.806C196.306 157.4 196.706 155 197.106 152.3C197.506 149.6 198.006 146.6 198.706 143.2C199.406 139.8 200.006 136.1 200.806 132C201.606 127.9 202.506 123.4 203.606 118.3C204.706 113.2 205.906 107.8 207.306 101.9C207.506 101 207.906 100.6 208.606 100.6H226.106C227.006 100.6 227.306 101.1 227.106 102L205.506 179.1C205.407 179.514 205.2 179.894 204.906 180.2C204.906 180.7 204.506 180.9 204.006 180.8Z" fill="#FF61F6"/>
</svg>

<svg xmlns="http://www.w3.org/2000/svg" width="256" height="256" fill="none"><path fill="#470137" d="M196 0H60C26.863 0 0 26.863 0 60v136c0 33.137 26.863 60 60 60h136c33.137 0 60-26.863 60-60V60c0-33.137-26.863-60-60-60"/><path fill="#FF61F6" d="M29.006 179.2V76.8a1.2 1.2 0 0 1 1-1.3h.1c1.5-.1 3.8-.2 6.7-.2s6.4-.1 10.4-.2 8.2-.1 12.7-.1c12.2 0 22.4 2.2 30.4 6.6a43.85 43.85 0 0 1 18.1 18.1c4 7.7 6 16.5 6 26.5a61.9 61.9 0 0 1-3.1 20.5 48.7 48.7 0 0 1-8.6 15.4 52.4 52.4 0 0 1-12.3 10.7 54.9 54.9 0 0 1-14.7 6.3 61.4 61.4 0 0 1-15.4 2h-11.3c-4 0-7.8 0-11.2-.1s-6.1-.1-7.8-.2c-.7 0-1-.6-1-1.6m21.1-84.4v66.7c1.1 0 2.1 0 3.1.1s1.9.1 2.8.2 2.1.1 3.3.1a37.4 37.4 0 0 0 13.6-2.3 26.84 26.84 0 0 0 10.5-6.8 30.9 30.9 0 0 0 6.7-11.1 47.6 47.6 0 0 0 2.4-15 39.7 39.7 0 0 0-2.3-14.1 26.08 26.08 0 0 0-17.1-16.2 42.2 42.2 0 0 0-13.2-1.9c-2 0-3.7 0-5.1.1s-3 .1-4.7.2m153.9 86h-18.7a1.36 1.36 0 0 1-1.2-.4 3.4 3.4 0 0 1-.6-1.2c-1.9-8-3.5-15.2-4.8-21.3s-2.4-11.4-3.2-15.7-1.5-7.9-2.1-10.9-1-5.5-1.3-7.6h-.1c-1 4.4-1.9 8.7-2.8 12.8s-1.8 8.3-2.8 12.5-2.1 8.8-3.4 13.8-2.6 10.5-4.1 16.4c-.2 1.1-.7 1.6-1.6 1.6h-18.7a2.23 2.23 0 0 1-1.4-.3 4.1 4.1 0 0 1-.7-1.1l-19.5-77.3c-.3-.9.1-1.3 1.2-1.3h18.9c.9 0 1.4.3 1.5 1 2 8.8 3.7 16.4 5 22.8s2.4 11.8 3.1 16.3 1.4 8.2 1.9 11 .9 5.2 1.2 7h.3c.2-1.6.4-3.1.7-4.7q.6-2.85 1.5-7.5c.6-3.1 1.3-6.7 2.2-10.9s1.9-9 3.1-14.6 2.7-11.8 4.6-18.9c.04-.457.176-.9.4-1.3.1-.2.5-.3 1.1-.3h19.6c.6 0 .9.4 1 1.1 1.7 7.3 3.1 13.7 4.3 19.2s2.1 10.4 3 14.7 1.5 7.9 1.9 10.9.9 5.6 1.3 7.7c.331 1.685.565 3.388.7 5.1h.3c.5-2 .9-4.4 1.3-7.1s.9-5.7 1.6-9.1 1.3-7.1 2.1-11.2 1.7-8.6 2.8-13.7 2.3-10.5 3.7-16.4c.2-.9.6-1.3 1.3-1.3h17.5c.9 0 1.2.5 1 1.4l-21.6 77.1a2.4 2.4 0 0 1-.6 1.1c0 .5-.4.7-.9.6"/></svg>
